X: 31695
T: Pass Of The Dolphin, The
R: jig
M: 6/8
K: Dmixolydian
DE|:{E}F3 FEF|G2E C2E|{E}F2F FED|1 C3]" " [2 "or" CDC] B,A,G,|
A,2F FEF|G2E C2E|FAF GFE|1 D2A, D2E:|2 D2A, DFA||
|:{cd}c3 cBA|{GA}G3 GFG|A2D DED|C2A, A,2 [1 z|
{cd}c3 cBA|G2G GFG|A2d dcA|def dcA:|
[2 B,|CDC CDE|{E}G3 GED|CDC CDE|{E}G3 zAG||
["2' to A' " B,|CDC CDE|{E}G3 GED|cdc cde|{e}g3 zag||
|:" A' (A+1 oct)"{e}f3 fef|g2e c2e|{e}f2f fed|1 c3]" " [2"or"cdc] BAG|
A2f fef|g2e c2e|faf gfe|1 d2A d2e:|2 d3"then B as usual" d2z||

